X:1
T:Way Down Home
T:Way Down Home
T:Arr: Phil Embury
C:Arr: Phil Embury
%%score [ 1 2 3 4 ]
L:1/8
M:4/4
K:Bb
V:1 treble-8 nm="Tenor"
V:2 treble-8 nm="Lead"
V:3 bass nm="Baritone"
V:4 bass nm="Bass"
V:1
 z4 | g4 g4 | =e4 e4 | (f4 ^f4) | !fermata!=f2 f2 g2 f2 | =e4 _e4- | e4 e4 | d8- | d6 z2 | f8 | %10
w: |said that|she would|greet _|me Down on the|lev- ee|_ to-|night.|_|way|
 ^f8 | (=f8 | !fermata!_a2) a2 g2 a2 | g8 | f8 | =e2 e6- | e4 z4 | _e8 | =e8 | _e8- | e2 e2 d2 e2 | %21
w: down|home|_ a- mong the|cot-|ton|blos- soms,|_|'Way|down|home,|_ that's where I|
 =e8 | _e8 | d6 d2 | e6 z2 | f8 | ^f8 | (=f8 | !fermata!_a2) a2 g2 a2 | g8 | f8 | =e2 e6- | e4 z4 | %33
w: long|to|be, to|be.|'Way|down|home,|_ that's where we|hunt|the|pos- sum.|_|
 ^c4 =c2 ^c2 | g8 | f4 ^f2 f2 | =f8 | =e8 | f8 | b8- | b4 |] %41
w: My mind is|free,|I long to|be|'Way|down|home.|_|
V:2
 G2 A2 | B4 B4 | B4 B4 | d8 | !fermata!d2 d2 ^c2 d2 | c4 ^c4- | c4 =c4 | B8- | B6 F2 | d8 | d8 | %11
w: And she|said that|she would|greet|me Down on the|lev- ee|_ to-|night.|_ A-|way|down|
 d8- | !fermata!d2 d2 ^c2 d2 | e8 | d8 | d2 c6- | c4 z4 | c8 | c8 | c8- | c2 c2 =B2 c2 | d8 | c8 | %23
w: home|_ a- mong the|cot-|ton|blos- soms,|_|'Way|down|home,|_ that's where I|long|to|
 F8- | F6 z2 | d8 | d8 | d8- | !fermata!d2 d2 ^c2 d2 | e8 | d8 | d2 c6- | c4 z4 | B4 A2 B2 | ^c8 | %35
w: be.|_|'Way|down|home,|_ that's where we|hunt|the|pos- sum.|_|My mind is|free,|
 d4 d2 d2 | d8 | c8 | e8 | d8- | d4 |] %41
w: I long to|be|'Way|down|home.|_|
V:3
 z4 | E4 ^C4 | ^C4 C4 | (D4 =C4) | !fermata!=B,2 _B,2 A,2 B,2 | B,4 B,4- | B,4 A,4 | F,8- | %8
w: |said that|she would|greet _|me Down on the|lev- ee|_ to-|night.|
 F,6 z2 | B,8 | C8 | (=B,8 | !fermata!_B,2) B,2 A,2 B,2 | B,8 | =B,8 | _B,2 B,6- | B,4 z4 | A,8 | %18
w: _|way|down|home|_ a- mong the|cot-|ton|blos- soms,|_|'Way|
 B,8 | A,8- | A,2 A,2 ^G,2 A,2 | B,8 | A,8 | B,6 ^G,2 | A,6 z2 | B,8 | C8 | (=B,8 | %28
w: down|home,|_ that's where I|long|to|be, to|be.|'Way|down|home,|
 !fermata!_B,2) B,2 A,2 B,2 | =B,8 | =B,8 | _B,2 B,6- | B,4 z4 | G,4 ^F,2 G,2 | A,8 | B,4 A,2 C2 | %36
w: _ that's where we|hunt|the|pos- sum.|_|My mind is|free,|I long to|
 =B,8 | _B,8 | A,8 | F8- | F4 |] %41
w: be|'Way|down|home.|_|
V:4
 z4 | E,4 E,4 | ^F,4 F,4 | (B,4 A,4) | !fermata!G,2 F,2 =E,2 F,2 | G,4 ^F,4- | F,4 =F,4 | B,,8- | %8
w: |said that|she would|greet _|me Down on the|lev- ee|_ to-|night.|
 B,,6 z2 | B,,8 | A,8 | (G,8 | !fermata!F,2) F,2 =E,2 F,2 | E,8 | G,8 | G,2 G,6- | G,4 z4 | F,8 | %18
w: _|way|down|home|_ a- mong the|cot-|ton|blos- soms,|_|'Way|
 G,8 | F,8- | F,2 F,2 F,2 F,2 | G,8 | F,8 | B,,6 =B,,2 | C,6 z2 | B,,8 | A,8 | (G,8 | %28
w: down|home,|_ that's where I|long|to|be, to|be.|'Way|down|home,|
 !fermata!F,2) F,2 E,2 F,2 | G,8 | G,8 | G,2 G,6- | G,4 z4 | E,4 D,2 E,2 | =E,8 | F,4 D,2 A,2 | %36
w: _ that's where we|hunt|the|pos- sum.|_|My mind is|free,|I long to|
 G,8 | G,8 | C,8 | B,,8- | B,,4 |] %41
w: be|'Way|down|home.|_|

